icons/Bee_filled.svg

<svg width="24" height="24" viewBox="0 0 24 24" fill="none" xmlns="http://www.w3.org/2000/svg">
<path fill-rule="evenodd" clip-rule="evenodd" d="M6.75,3.00003c0,-0.41421 0.33579,-0.75 0.75,-0.75c0.95165,0 1.87504,0.3924 2.5608,1.00194c0.4806,0.42722 0.8708,0.98612 1.0618,1.62839c0.2776,-0.08474 0.5722,-0.13033 0.8774,-0.13033c0.3052,0 0.5998,0.04559 0.8774,0.13033c0.191,-0.64227 0.5812,-1.20117 1.0618,-1.62839c0.6858,-0.60954 1.6091,-1.00194 2.5608,-1.00194c0.4142,0 0.75,0.33579 0.75,0.75c0,0.41421 -0.3358,0.75 -0.75,0.75c-0.5483,0 -1.125,0.2326 -1.5642,0.62306c-0.438,0.38934 -0.6858,0.88462 -0.6858,1.37694c0,0.00517 -0.0001,0.01032 -0.0002,0.01546c0.4669,0.52887 0.7502,1.22362 0.7502,1.98454c0,0.06672 -0.0022,0.13292 -0.0065,0.19856c0.2536,-0.17081 0.5113,-0.332 0.7691,-0.4771c0.698,-0.39301 1.4878,-0.72146 2.2374,-0.72146c2.6234,0 4.75,2.12665 4.75,4.74997c0,2.6234 -2.1266,4.75 -4.75,4.75c-0.4954,0 -1.0084,-0.1434 -1.5008,-0.3542c-0.069,0.0279 -0.154,0.0617 -0.253,0.0999c-0.2925,0.113 -0.7042,0.2638 -1.1791,0.4144c-0.968,0.307 -2.128,0.5899 -3.0671,0.5899c-0.9391,0 -2.09913,-0.2829 -3.06709,-0.5899c-0.47487,-0.1506 -0.88659,-0.3014 -1.17909,-0.4144c-0.099,-0.0382 -0.18407,-0.072 -0.25301,-0.0999c-0.49245,0.2108 -1.00542,0.3542 -1.50081,0.3542c-2.62335,0 -4.75,-2.1266 -4.75,-4.75c0,-2.62332 2.12665,-4.74997 4.75,-4.74997c0.74956,0 1.53938,0.32845 2.23743,0.72146c0.25772,0.1451 0.51543,0.30629 0.76904,0.47709c-0.00429,-0.06563 -0.00647,-0.13183 -0.00647,-0.19855c0,-0.76092 0.28329,-1.45567 0.75016,-1.98454c-0.00011,-0.00514 -0.00016,-0.01029 -0.00016,-0.01546c0,-0.49232 -0.24776,-0.9876 -0.68577,-1.37694c-0.43927,-0.39046 -1.01588,-0.62306 -1.56423,-0.62306c-0.41421,0 -0.75,-0.33579 -0.75,-0.75zM6,14.75c0.35501,0 0.86747,-0.1715 1.50153,-0.5285c0.61395,-0.3457 1.25774,-0.8164 1.85235,-1.3022c0.59177,-0.4836 1.11912,-0.9691 1.49942,-1.3348l0.0874,-0.0845l-0.0874,-0.0844c-0.3803,-0.3657 -0.90765,-0.8513 -1.49942,-1.3348c-0.59461,-0.48584 -1.2384,-0.95657 -1.85235,-1.30223c-0.63406,-0.35699 -1.14652,-0.52854 -1.50153,-0.52854c-1.79493,0 -3.25,1.45507 -3.25,3.24997c0,1.795 1.45507,3.25 3.25,3.25zM14.8112,14.9266c-0.3886,-0.2707 -0.7651,-0.5606 -1.1142,-0.8458c-0.1109,-0.0906 -0.2195,-0.1812 -0.3254,-0.271c-0.4604,0.1173 -0.9265,0.1902 -1.3716,0.1902c-0.4451,0 -0.9112,-0.0729 -1.3716,-0.1902c-0.1059,0.0898 -0.2145,0.1804 -0.3254,0.271c-0.34911,0.2852 -0.72556,0.5751 -1.11419,0.8458c0.84629,0.3149 1.83469,0.5734 2.81119,0.5734c0.9765,0 1.9649,-0.2585 2.8112,-0.5734zM21.25,11.5c0,-1.7949 -1.4551,-3.24997 -3.25,-3.24997c-0.355,0 -0.8675,0.17155 -1.5015,0.52854c-0.614,0.34566 -1.2578,0.81639 -1.8524,1.30223c-0.5918,0.4835 -1.1191,0.9691 -1.4994,1.3348l-0.0874,0.0844l0.0874,0.0845c0.3803,0.3657 0.9076,0.8512 1.4994,1.3348c0.5946,0.4858 1.2384,0.9565 1.8524,1.3022c0.634,0.357 1.1465,0.5285 1.5015,0.5285c1.7949,0 3.25,-1.455 3.25,-3.25zM15.5205,17.8399c0.2742,-0.0869 0.5283,-0.1738 0.7536,-0.2544c-0.3833,0.9922 -0.9531,1.8021 -1.5394,2.4275c-0.5155,0.5499 -1.0506,0.9653 -1.5001,1.2473c-0.2244,0.1408 -0.4354,0.2534 -0.6198,0.3336c-0.1476,0.0643 -0.3828,0.1561 -0.6148,0.1561c-0.232,0 -0.4671,-0.0918 -0.6148,-0.1561c-0.1843,-0.0802 -0.3953,-0.1928 -0.6197,-0.3336c-0.4496,-0.282 -0.98463,-0.6974 -1.50012,-1.2473c-0.58631,-0.6254 -1.15616,-1.4353 -1.53943,-2.4274c0.22525,0.0806 0.47942,0.1674 0.75352,0.2543c1.00282,0.3181 2.34283,0.6601 3.52053,0.6601c1.1777,0 2.5177,-0.342 3.5205,-0.6601z" fill="#002B51"/>
</svg>

<svg width="24" height="24" viewBox="0 0 24 24" fill="none" xmlns="http://www.w3.org/2000/svg">
<path fill-rule="evenodd" clip-rule="evenodd" d="M6.75 3.00003C6.75 2.58582 7.08579 2.25003 7.5 2.25003C8.45165 2.25003 9.37504 2.64243 10.0608 3.25197C10.5414 3.67919 10.9316 4.23809 11.1226 4.88036C11.4002 4.79562 11.6948 4.75003 12 4.75003C12.3052 4.75003 12.5998 4.79562 12.8774 4.88036C13.0684 4.23809 13.4586 3.67919 13.9392 3.25197C14.625 2.64243 15.5483 2.25003 16.5 2.25003C16.9142 2.25003 17.25 2.58582 17.25 3.00003C17.25 3.41424 16.9142 3.75003 16.5 3.75003C15.9517 3.75003 15.375 3.98263 14.9358 4.37309C14.4978 4.76243 14.25 5.25771 14.25 5.75003C14.25 5.7552 14.2499 5.76035 14.2498 5.76549C14.7167 6.29436 15 6.98911 15 7.75003C15 7.81675 14.9978 7.88295 14.9935 7.94859C15.2471 7.77778 15.5048 7.61659 15.7626 7.47149C16.4606 7.07848 17.2504 6.75003 18 6.75003C20.6234 6.75003 22.75 8.87668 22.75 11.5C22.75 14.1234 20.6234 16.25 18 16.25C17.5046 16.25 16.9916 16.1066 16.4992 15.8958C16.4302 15.9237 16.3452 15.9575 16.2462 15.9957C15.9537 16.1087 15.542 16.2595 15.0671 16.4101C14.0991 16.7171 12.9391 17 12 17C11.0609 17 9.90087 16.7171 8.93291 16.4101C8.45804 16.2595 8.04632 16.1087 7.75382 15.9957C7.65482 15.9575 7.56975 15.9237 7.50081 15.8958C7.00836 16.1066 6.49539 16.25 6 16.25C3.37665 16.25 1.25 14.1234 1.25 11.5C1.25 8.87668 3.37665 6.75003 6 6.75003C6.74956 6.75003 7.53938 7.07848 8.23743 7.47149C8.49515 7.61659 8.75286 7.77778 9.00647 7.94858C9.00218 7.88295 9 7.81675 9 7.75003C9 6.98911 9.28329 6.29436 9.75016 5.76549C9.75005 5.76035 9.75 5.7552 9.75 5.75003C9.75 5.25771 9.50224 4.76243 9.06423 4.37309C8.62496 3.98263 8.04835 3.75003 7.5 3.75003C7.08579 3.75003 6.75 3.41424 6.75 3.00003ZM2.75 11.5C2.75 9.7051 4.20507 8.25003 6 8.25003C6.35501 8.25003 6.86747 8.42158 7.50153 8.77857C8.11548 9.12423 8.75927 9.59496 9.35388 10.0808C9.94565 10.5643 10.473 11.0499 10.8533 11.4156L10.9407 11.5L10.8533 11.5845C10.473 11.9502 9.94565 12.4357 9.35388 12.9193C8.75927 13.4051 8.11548 13.8758 7.50153 14.2215C6.86747 14.5785 6.35501 14.75 6 14.75C4.20507 14.75 2.75 13.295 2.75 11.5ZM12 15.5C11.0235 15.5 10.0351 15.2415 9.18881 14.9266C9.57744 14.6559 9.95389 14.366 10.303 14.0808C10.4139 13.9902 10.5225 13.8996 10.6284 13.8098C11.0888 13.9271 11.5549 14 12 14C12.4451 14 12.9112 13.9271 13.3716 13.8098C13.4775 13.8996 13.5861 13.9902 13.697 14.0808C14.0461 14.366 14.4226 14.6559 14.8112 14.9266C13.9649 15.2415 12.9765 15.5 12 15.5ZM21.25 11.5C21.25 9.7051 19.7949 8.25003 18 8.25003C17.645 8.25003 17.1325 8.42158 16.4985 8.77857C15.8845 9.12423 15.2407 9.59496 14.6461 10.0808C14.0543 10.5643 13.527 11.0499 13.1467 11.4156L13.0593 11.5L13.1467 11.5845C13.527 11.9502 14.0543 12.4357 14.6461 12.9193C15.2407 13.4051 15.8845 13.8758 16.4985 14.2215C17.1325 14.5785 17.645 14.75 18 14.75C19.7949 14.75 21.25 13.295 21.25 11.5ZM15.5205 17.8399C15.7947 17.753 16.0488 17.6661 16.2741 17.5855C15.8908 18.5777 15.321 19.3876 14.7347 20.013C14.2192 20.5629 13.6841 20.9783 13.2346 21.2603C13.0102 21.4011 12.7992 21.5137 12.6148 21.5939C12.4672 21.6582 12.232 21.75 12 21.75C11.768 21.75 11.5329 21.6582 11.3852 21.5939C11.2009 21.5137 10.9899 21.4011 10.7655 21.2603C10.3159 20.9783 9.78087 20.5629 9.26538 20.013C8.67907 19.3876 8.10922 18.5777 7.72595 17.5856C7.9512 17.6662 8.20537 17.753 8.47947 17.8399C9.48229 18.158 10.8223 18.5 12 18.5C13.1777 18.5 14.5177 18.158 15.5205 17.8399Z" fill="#002B51"/>
</svg>
